X: 19833
T: Jerry Tarrant's
R: polka
M: 2/4
K: Dmajor
z B/c/|dA BA|FA2 B/c/|dA BA|B,3 E|
FD ED|FD ED|FA, CE|D2:|
za|a3 f|g3 e|f>a fd|B3 c/e/|
fd ed|fd ed|fA ce|d2:|

